symbols/web/escalator_warning/materialsymbolssharp/escalator_warning_wght100_20px.svg

<svg xmlns="http://www.w3.org/2000/svg" height="20" width="20"><path d="M6.5 4.792q-.542 0-.938-.396-.395-.396-.395-.938 0-.541.395-.937.396-.396.938-.396.542 0 .938.396.395.396.395.937 0 .542-.395.938-.396.396-.938.396ZM13.792 9.5q-.417 0-.73-.302-.312-.302-.312-.74 0-.458.312-.75.313-.291.73-.291.458 0 .75.291.291.292.291.73 0 .458-.291.76-.292.302-.75.302Zm-8.625 8.292V12.5h-1.5V6.292H8.25l2.042 6.396 2.458-2.271h2.833v3.916h-.875v3.459h-1.875V11.25l-1.895 1.896H9.667L7.958 7.792v10Z"/></svg>

<svg xmlns="http://www.w3.org/2000/svg" height="20" width="20"><path d="M6.5 4.792Q5.958 4.792 5.562 4.396Q5.167 4 5.167 3.458Q5.167 2.917 5.562 2.521Q5.958 2.125 6.5 2.125Q7.042 2.125 7.438 2.521Q7.833 2.917 7.833 3.458Q7.833 4 7.438 4.396Q7.042 4.792 6.5 4.792ZM13.792 9.5Q13.375 9.5 13.062 9.198Q12.75 8.896 12.75 8.458Q12.75 8 13.062 7.708Q13.375 7.417 13.792 7.417Q14.25 7.417 14.542 7.708Q14.833 8 14.833 8.438Q14.833 8.896 14.542 9.198Q14.25 9.5 13.792 9.5ZM5.167 17.792V12.5H3.667V6.292H8.25L10.292 12.688L12.75 10.417H15.583V14.333H14.708V17.792H12.833V11.25L10.938 13.146H9.667L7.958 7.792V17.792Z"/></svg>
